icons/svg/overlays/note.svg

<?xml version="1.0" encoding="UTF-8" standalone="no"?>
<svg
   xmlns:dc="http://purl.org/dc/elements/1.1/"
   xmlns:cc="http://creativecommons.org/ns#"
   xmlns:rdf="http://www.w3.org/1999/02/22-rdf-syntax-ns#"
   xmlns:svg="http://www.w3.org/2000/svg"
   xmlns="http://www.w3.org/2000/svg"
   xmlns:sodipodi="http://sodipodi.sourceforge.net/DTD/sodipodi-0.dtd"
   xmlns:inkscape="http://www.inkscape.org/namespaces/inkscape"
   width="32"
   height="32"
   id="svg2"
   version="1.1"
   inkscape:version="0.48.4 r9939"
   sodipodi:docname="note.svg">
  <defs
     id="defs13" />
  <sodipodi:namedview
     pagecolor="#ffffff"
     bordercolor="#666666"
     borderopacity="1"
     objecttolerance="10"
     gridtolerance="10"
     guidetolerance="10"
     inkscape:pageopacity="0"
     inkscape:pageshadow="2"
     inkscape:window-width="1920"
     inkscape:window-height="1004"
     id="namedview11"
     showgrid="false"
     inkscape:zoom="5.6568543"
     inkscape:cx="-16.413379"
     inkscape:cy="18.549574"
     inkscape:window-x="1680"
     inkscape:window-y="0"
     inkscape:window-maximized="1"
     inkscape:current-layer="svg2"
     inkscape:snap-center="false"
     inkscape:snap-object-midpoints="false"
     inkscape:snap-bbox="true">
    <inkscape:grid
       type="xygrid"
       id="grid3835"
       empspacing="5"
       visible="true"
       enabled="true"
       snapvisiblegridlinesonly="true" />
  </sodipodi:namedview>
  <metadata
     id="metadata2975">image/svg+xmlen<rdf:RDF>
  <cc:Work
     rdf:about="">
    <dc:format>image/svg+xml</dc:format>
    <dc:type
       rdf:resource="http://purl.org/dc/dcmitype/StillImage" />
    <dc:title />
  </cc:Work>
</rdf:RDF>
</metadata>
  <path
     sodipodi:type="inkscape:offset"
     inkscape:radius="0.99853408"
     inkscape:original="M 1 1 L 1 15 L 8 15 L 8 9.5 L 8 9 L 8.5 9 L 14 9 L 14 1 L 1 1 z M 3 3 L 3.5 3 L 11.5 3 L 12 3 L 12 4 L 11.5 4 L 3.5 4 L 3 4 L 3 3 z M 3 6 L 3.5 6 L 11.53125 6 L 12.03125 6 L 12.03125 7 L 11.53125 7 L 3.5 7 L 3 7 L 3 6 z M 3 9 L 3.5 9 L 4.53125 9 L 5.03125 9 L 5.03125 10 L 4.53125 10 L 3.5 10 L 3 10 L 3 9 z M 9 10 L 9 14.5 L 13.46875 10 L 9 10 z "
     style="opacity:0.71199999;color:#000000;fill:#fefefe;fill-opacity:1;fill-rule:nonzero;stroke:none;stroke-width:0.05437371;marker:none;visibility:visible;display:inline;overflow:visible;enable-background:accumulate"
     id="path3943"
     d="M 0.90625,0 A 0.99863394,0.99863394 0 0 0 0,1 l 0,14 a 0.99863394,0.99863394 0 0 0 1,1 l 7,0 a 0.99863394,0.99863394 0 0 0 0.84375,-0.53125 0.99863394,0.99863394 0 0 0 0.03125,0 0.99863394,0.99863394 0 0 0 0.84375,-0.25 l 4.46875,-4.5 A 0.99863394,0.99863394 0 0 0 14.46875,9.875 0.99863394,0.99863394 0 0 0 15,9 L 15,1 A 0.99863394,0.99863394 0 0 0 14,0 L 1,0 A 0.99863394,0.99863394 0 0 0 0.90625,0 z"
     transform="translate(8.5000075,8.0005499)" />
  <path
     style="color:#000000;fill:#008b12;fill-opacity:1;fill-rule:nonzero;stroke:none;stroke-width:30.54599953;marker:none;visibility:visible;display:inline;overflow:visible;enable-background:accumulate"
     d="m 9.5000002,9 0,14 6.9999998,0 0,-5.5 0,-0.5 0.5,0 5.5,0 0,-8 z M 11.5,11 l 0.5,0 8,0 0.5,0 0,1 -0.5,0 -8,0 -0.5,0 z m 0,3 0.5,0 8.03125,0 0.5,0 0,1 -0.5,0 L 12,15 11.5,15 z m 0,3 0.5,0 1.03125,0 0.5,0 0,1 -0.5,0 L 12,18 11.5,18 z m 6,1 0,4.5 4.46875,-4.5 z"
     id="rect3786"
     inkscape:connector-curvature="0"
     sodipodi:nodetypes="cccccccccccccccccccccccccccccccccccccccc" />
</svg>

<svg width="32" height="32" viewBox="0 0 32 32" fill="none" xmlns="http://www.w3.org/2000/svg">
<path opacity="0.712" d="M9.40627 8.00049C9.1575 8.0236 8.92643 8.13911 8.75866 8.32424C8.59089 8.50937 8.4986 8.75066 8.50002 9.00049V23.0005C8.49984 23.1319 8.52558 23.262 8.57577 23.3834C8.62596 23.5048 8.69961 23.6151 8.79251 23.708C8.8854 23.8009 8.99571 23.8745 9.11712 23.9247C9.23853 23.9749 9.36864 24.0007 9.50002 24.0005H16.5C16.6749 23.9936 16.8449 23.9409 16.9929 23.8477C17.141 23.7545 17.262 23.624 17.3438 23.4692C17.3542 23.4694 17.3646 23.4694 17.375 23.4692C17.5254 23.4948 17.6797 23.4855 17.8259 23.4422C17.9722 23.3989 18.1066 23.3226 18.2188 23.2192L22.6875 18.7192C22.7964 18.6099 22.8785 18.4768 22.9273 18.3304C22.9761 18.184 22.9903 18.0283 22.9688 17.8755C23.128 17.7911 23.2615 17.6653 23.355 17.5112C23.4486 17.3572 23.4987 17.1807 23.5 17.0005V9.00049C23.5002 8.86912 23.4745 8.739 23.4243 8.61759C23.3741 8.49619 23.3004 8.38588 23.2075 8.29298C23.1146 8.20009 23.0043 8.12644 22.8829 8.07624C22.7615 8.02605 22.6314 8.00031 22.5 8.00049H9.50002C9.46878 7.99902 9.4375 7.99902 9.40627 8.00049V8.00049Z" fill="#FEFEFE"/>
<path d="M9.5 9V23H16.5V17.5V17H17H22.5V9H9.5ZM11.5 11H12H20H20.5V12H20H12H11.5V11ZM11.5 14H12H20.0312H20.5312V15H20.0312H12H11.5V14ZM11.5 17H12H13.0312H13.5312V18H13.0312H12H11.5V17ZM17.5 18V22.5L21.9688 18H17.5Z" fill="#008B12"/>
</svg>
